;Generated with Cura_SteamEngine 15.01
; Default start code
G28 ; Home extruder
M420 S1 ; activate auto leveling
G1 Z15 F100
G90 ; Absolute positioning
M82 ; Extruder in absolute mode
M190 S80
; Activate all used extruder
M106 ; Turn fan full speed
M104 T0 S240
G92 E0 ; Reset extruder position
; Wait for all used extruders to reach temperature
M109 T0 S240
M106 S64 ; Turn fan 25%
;Layer count: 18
;LAYER:0
G0 F9000 X119.700 Y113.700 Z0.400
;TYPE:SKIRT
G1 F1200 X221.662 Y113.700 E7.46079
G1 X239.300 Y126.504 E9.05562
G1 X239.300 Y139.870 E10.03364
G1 X232.116 Y143.371 E10.61841
G1 X231.169 Y144.023 E10.70254
G1 X230.341 Y144.797 E10.78547
G1 X229.628 Y145.697 E10.86949
G1 X229.061 Y146.684 E10.95278
G1 X228.645 Y147.750 E11.03651
G1 X228.393 Y148.859 E11.11973
G1 X228.308 Y150.000 E11.20345
G1 X228.393 Y151.140 E11.28709
G1 X228.645 Y152.249 E11.37031
G1 X229.061 Y153.315 E11.45404
G1 X229.628 Y154.302 E11.53733
G1 X230.341 Y155.202 E11.62135
G1 X231.169 Y155.976 E11.70428
G1 X232.116 Y156.628 E11.78841
G1 X239.300 Y160.129 E12.37318
G1 X239.300 Y173.493 E13.35106
G1 X234.502 Y176.980 E13.78506
G1 X227.680 Y181.931 E14.40185
G1 X221.661 Y186.299 E14.94603
G1 X204.384 Y186.299 E16.21022
G1 X198.214 Y186.300 E16.66170
G1 X197.551 Y186.299 E16.71021
G1 X119.700 Y186.299 E22.40675
G1 X119.700 Y113.700 E27.71898
G0 F9000 X120.100 Y114.100
G1 F1200 X221.532 Y114.100 E35.14099
G1 X238.900 Y126.708 E36.71140
G1 X238.900 Y139.620 E37.65620
G1 X231.909 Y143.027 E38.22527
G1 X230.922 Y143.707 E38.31297
G1 X230.045 Y144.526 E38.40077
G1 X229.296 Y145.472 E38.48906
G1 X228.700 Y146.508 E38.57652
G1 X228.261 Y147.634 E38.66495
G1 X227.996 Y148.800 E38.75244
G1 X227.906 Y149.999 E38.84042
G1 X227.996 Y151.200 E38.92855
G1 X228.261 Y152.365 E39.01597
G1 X228.700 Y153.491 E39.10441
G1 X229.296 Y154.527 E39.19186
G1 X230.045 Y155.473 E39.28015
G1 X230.922 Y156.292 E39.36796
G1 X231.909 Y156.972 E39.45566
G1 X238.900 Y160.379 E40.02472
G1 X238.900 Y173.290 E40.96945
G1 X234.267 Y176.656 E41.38848
G1 X227.445 Y181.608 E42.00531
G1 X221.531 Y185.899 E42.53996
G1 X204.384 Y185.899 E43.79464
G1 X198.215 Y185.900 E44.24604
G1 X197.552 Y185.899 E44.29456
G1 X120.100 Y185.899 E49.96190
G1 X120.100 Y114.100 E55.21560
G0 F9000 X120.500 Y114.500
G1 F1200 X221.402 Y114.500 E62.59883
G1 X238.500 Y126.912 E64.14482
G1 X238.500 Y139.370 E65.05640
G1 X231.710 Y142.679 E65.60910
G1 X230.671 Y143.394 E65.70139
G1 X229.748 Y144.257 E65.79385
G1 X228.964 Y145.246 E65.88620
G1 X228.338 Y146.336 E65.97817
G1 X227.878 Y147.516 E66.07085
G1 X227.599 Y148.741 E66.16278
G1 X227.505 Y149.999 E66.25509
G1 X227.599 Y151.258 E66.34747
G1 X227.878 Y152.483 E66.43940
G1 X228.338 Y153.663 E66.53207
G1 X228.964 Y154.753 E66.62404
G1 X229.748 Y155.742 E66.71639
G1 X230.671 Y156.605 E66.80885
G1 X231.710 Y157.320 E66.90114
G1 X238.500 Y160.629 E67.45384
G1 X238.500 Y173.086 E68.36535
G1 X234.032 Y176.332 E68.76945
G1 X227.210 Y181.284 E69.38628
G1 X221.401 Y185.499 E69.91145
G1 X204.383 Y185.499 E71.15669
G1 X198.215 Y185.500 E71.60802
G1 X197.552 Y185.499 E71.65653
G1 X120.500 Y185.499 E77.29460
G1 X120.500 Y114.500 E82.48976
G0 F9000 X120.900 Y114.900
G1 F1200 X221.272 Y114.900 E89.83421
G1 X238.100 Y127.116 E91.35580
G1 X238.100 Y139.119 E92.23408
G1 X231.502 Y142.336 E92.77120
G1 X230.419 Y143.081 E92.86739
G1 X229.456 Y143.982 E92.96389
G1 X228.632 Y145.021 E93.06092
G1 X227.974 Y146.166 E93.15755
G1 X227.495 Y147.393 E93.25393
G1 X227.202 Y148.683 E93.35073
G1 X227.104 Y150.000 E93.44736
G1 X227.202 Y151.316 E93.54392
G1 X227.495 Y152.606 E93.64072
G1 X227.974 Y153.833 E93.73710
G1 X228.632 Y154.978 E93.83373
G1 X229.456 Y156.017 E93.93077
G1 X230.419 Y156.918 E94.02726
G1 X231.502 Y157.663 E94.12345
G1 X238.100 Y160.880 E94.66057
G1 X238.100 Y172.882 E95.53878
G1 X233.797 Y176.009 E95.92800
G1 X226.975 Y180.960 E96.54479
G1 X221.271 Y185.099 E97.06047
G1 X204.383 Y185.099 E98.29620
G1 X198.215 Y185.100 E98.74753
G1 X197.553 Y185.099 E98.79597
G1 X120.900 Y185.099 E104.40484
G1 X120.900 Y114.900 E109.54147
G0 F9000 X121.300 Y115.300
G1 F1200 X221.143 Y115.300 E116.84721
G1 X237.700 Y127.320 E118.34432
G1 X237.700 Y138.869 E119.18939
G1 X231.303 Y141.987 E119.71011
G1 X230.168 Y142.769 E119.81097
G1 X229.159 Y143.712 E119.91202
G1 X228.298 Y144.798 E120.01343
G1 X227.616 Y145.985 E120.11360
G1 X227.111 Y147.280 E120.21531
G1 X226.805 Y148.624 E120.31617
G1 X226.703 Y150.000 E120.41713
G1 X226.805 Y151.375 E120.51802
G1 X227.111 Y152.719 E120.61888
G1 X227.616 Y154.014 E120.72059
G1 X228.298 Y155.201 E120.82076
G1 X229.159 Y156.287 E120.92217
G1 X230.168 Y157.230 E121.02322
G1 X231.303 Y158.012 E121.12408
G1 X237.700 Y161.130 E121.64480
G1 X237.700 Y172.678 E122.48980
G1 X233.561 Y175.685 E122.86415
G1 X226.740 Y180.636 E123.48087
G1 X221.142 Y184.699 E123.98701
G1 X204.383 Y184.699 E125.21330
G1 X198.215 Y184.700 E125.66463
G1 X197.553 Y184.699 E125.71307
G1 X121.300 Y184.699 E131.29268
G1 X121.300 Y115.300 E136.37076
G0 F9000 X121.700 Y115.700
G1 F1200 X221.013 Y115.700 E143.63772
G1 X237.300 Y127.524 E145.11042
G1 X237.300 Y138.619 E145.92227
G1 X231.100 Y141.641 E146.42696
G1 X229.918 Y142.456 E146.53201
G1 X228.863 Y143.441 E146.63763
G1 X227.970 Y144.569 E146.74290
G1 X227.251 Y145.820 E146.84848
G1 X226.729 Y147.158 E146.95357
G1 X226.408 Y148.567 E147.05931
G1 X226.301 Y150.000 E147.16446
G1 X226.408 Y151.432 E147.26954
G1 X226.729 Y152.841 E147.37528
G1 X227.251 Y154.179 E147.48037
G1 X227.970 Y155.430 E147.58595
G1 X228.863 Y156.558 E147.69122
G1 X229.918 Y157.543 E147.79683
G1 X231.100 Y158.358 E147.90189
G1 X237.300 Y161.380 E148.40658
G1 X237.300 Y172.474 E149.21835
G1 X233.326 Y175.361 E149.57777
G1 X226.505 Y180.313 E150.19454
G1 X221.012 Y184.299 E150.69115
G1 X204.383 Y184.299 E151.90794
G1 X198.216 Y184.300 E152.35919
G1 X197.554 Y184.299 E152.40763
G1 X121.700 Y184.299 E157.95804
G1 X121.700 Y115.700 E162.97759
G0 F9000 X122.100 Y116.100
G1 F1200 X220.883 Y116.100 E170.20577
G1 X236.900 Y127.728 E171.65405
G1 X236.900 Y138.369 E172.43268
G1 X230.901 Y141.293 E172.92100
G1 X229.663 Y142.146 E173.03101
G1 X228.569 Y143.168 E173.14056
G1 X227.638 Y144.343 E173.25025
G1 X226.888 Y145.648 E173.36039
G1 X226.345 Y147.039 E173.46965
G1 X226.012 Y148.508 E173.57987
G1 X225.900 Y150.000 E173.68935
G1 X226.012 Y151.491 E173.79876
G1 X226.345 Y152.960 E173.90897
G1 X226.888 Y154.351 E174.01824
G1 X227.638 Y155.656 E174.12837
G1 X228.569 Y156.831 E174.23807
G1 X229.663 Y157.853 E174.34762
G1 X230.901 Y158.706 E174.45762
G1 X236.900 Y161.630 E174.94595
G1 X236.900 Y172.270 E175.72450
G1 X233.091 Y175.038 E176.06904
G1 X226.271 Y179.989 E176.68571
G1 X220.882 Y183.899 E177.17289
G1 X204.383 Y183.899 E178.38016
G1 X198.216 Y183.900 E178.83141
G1 X197.555 Y183.899 E178.87978
G1 X122.100 Y183.899 E184.40100
G1 X122.100 Y116.100 E189.36200
G0 F9000 X122.500 Y116.500
G1 F1200 X220.753 Y116.500 E196.55140
G1 X236.500 Y127.932 E197.97527
G1 X236.500 Y138.119 E198.72068
G1 X230.697 Y140.947 E199.19304
G1 X229.415 Y141.830 E199.30694
G1 X228.274 Y142.897 E199.42125
G1 X227.306 Y144.118 E199.53526
G1 X226.528 Y145.472 E199.64953
G1 X225.961 Y146.924 E199.76359
G1 X225.616 Y148.442 E199.87750
G1 X225.500 Y149.999 E199.99174
G1 X225.616 Y151.557 E200.10606
G1 X225.961 Y153.075 E200.21997
G1 X226.528 Y154.527 E200.33403
G1 X227.306 Y155.881 E200.44829
G1 X228.274 Y157.102 E200.56231
G1 X229.415 Y158.169 E200.67662
G1 X230.697 Y159.052 E200.79052
G1 X236.500 Y161.880 E201.26288
G1 X236.500 Y172.067 E202.00828
G1 X232.856 Y174.714 E202.33785
G1 X226.036 Y179.665 E202.95452
G1 X220.752 Y183.499 E203.43221
G1 X204.383 Y183.499 E204.62997
G1 X198.216 Y183.500 E205.08123
G1 X197.555 Y183.499 E205.12959
G1 X122.500 Y183.499 E210.62154
G1 X122.500 Y116.500 E215.52401
G0 F9000 X122.900 Y116.900
G1 F1200 X220.623 Y116.900 E222.67463
G1 X236.100 Y128.136 E224.07408
G1 X236.100 Y137.869 E224.78627
G1 X230.494 Y140.602 E225.24262
G1 X229.160 Y141.521 E225.36116
G1 X227.980 Y142.624 E225.47935
G1 X226.972 Y143.895 E225.59805
G1 X226.167 Y145.297 E225.71634
G1 X225.579 Y146.804 E225.83471
G1 X225.219 Y148.384 E225.95329
G1 X225.099 Y150.000 E226.07186
G1 X225.219 Y151.614 E226.19028
G1 X225.579 Y153.195 E226.30893
G1 X226.167 Y154.702 E226.42730
G1 X226.972 Y156.104 E226.54559
G1 X227.980 Y157.375 E226.66429
G1 X229.160 Y158.478 E226.78248
G1 X230.494 Y159.397 E226.90102
G1 X236.100 Y162.130 E227.35737
G1 X236.100 Y171.863 E228.06956
G1 X232.621 Y174.390 E228.38419
G1 X225.801 Y179.341 E229.00086
G1 X220.622 Y183.099 E229.46907
G1 X204.383 Y183.099 E230.65732
G1 X198.216 Y183.100 E231.10857
G1 X197.556 Y183.099 E231.15687
G1 X122.900 Y183.099 E236.61962
G1 X122.900 Y116.900 E241.46355
G0 F9000 X123.300 Y117.300
G1 F1200 X220.493 Y117.300 E248.57538
G1 X235.700 Y128.339 E249.95039
G1 X235.700 Y137.619 E250.62942
G1 X230.292 Y140.255 E251.06965
G1 X228.913 Y141.205 E251.19218
G1 X227.684 Y142.353 E251.31524
G1 X226.640 Y143.670 E251.43821
G1 X225.808 Y145.119 E251.56047
G1 X225.194 Y146.691 E251.68396
G1 X224.823 Y148.326 E251.80664
G1 X224.698 Y150.000 E251.92947
G1 X224.823 Y151.673 E252.05223
G1 X225.194 Y153.308 E252.17491
G1 X225.808 Y154.880 E252.29840
G1 X226.640 Y156.329 E252.42066
G1 X227.684 Y157.646 E252.54363
G1 X228.913 Y158.794 E252.66669
G1 X230.292 Y159.744 E252.78922
G1 X235.700 Y162.380 E253.22944
G1 X235.700 Y171.659 E253.90841
G1 X232.386 Y174.067 E254.20816
G1 X225.566 Y179.018 E254.82482
G1 X220.492 Y182.699 E255.28351
G1 X204.383 Y182.699 E256.46224
G1 X198.217 Y182.700 E256.91343
G1 X197.557 Y182.699 E256.96172
G1 X123.300 Y182.699 E262.39527
G1 X123.300 Y117.300 E267.18067
G0 F9000 X123.700 Y117.700
G1 F1200 X220.363 Y117.700 E274.25372
G1 X235.300 Y128.543 E275.60431
G1 X235.300 Y137.369 E276.25013
G1 X230.088 Y139.910 E276.67441
G1 X228.661 Y140.892 E276.80117
G1 X227.387 Y142.083 E276.92878
G1 X226.308 Y143.444 E277.05587
G1 X225.444 Y144.949 E277.18285
G1 X224.811 Y146.570 E277.31018
G1 X224.426 Y148.267 E277.43751
G1 X224.296 Y150.000 E277.56467
G1 X224.426 Y151.732 E277.69177
G1 X224.811 Y153.429 E277.81909
G1 X225.444 Y155.050 E277.94643
G1 X226.308 Y156.555 E278.07341
G1 X227.387 Y157.916 E278.20050
G1 X228.661 Y159.107 E278.32811
G1 X230.088 Y160.089 E278.45486
G1 X235.300 Y162.630 E278.87915
G1 X235.300 Y171.455 E279.52489
G1 X232.151 Y173.743 E279.80971
G1 X225.331 Y178.694 E280.42638
G1 X220.363 Y182.299 E280.87552
G1 X198.217 Y182.300 E282.49600
G1 X197.557 Y182.299 E282.54429
G1 X123.700 Y182.299 E287.94858
G1 X123.700 Y117.700 E292.67543
G0 F9000 X124.100 Y118.100
G1 F1200 X220.233 Y118.100 E299.70971
G1 X234.900 Y128.747 E301.03588
G1 X234.900 Y137.119 E301.64848
G1 X229.893 Y139.560 E302.05607
G1 X228.407 Y140.583 E302.18808
G1 X227.092 Y141.812 E302.31979
G1 X225.980 Y143.215 E302.45078
G1 X225.080 Y144.782 E302.58301
G1 X224.429 Y146.450 E302.71403
G1 X224.029 Y148.209 E302.84602
G1 X223.895 Y150.000 E302.97744
G1 X224.029 Y151.790 E303.10879
G1 X224.429 Y153.549 E303.24078
G1 X225.080 Y155.217 E303.37180
G1 X225.980 Y156.784 E303.50403
G1 X227.092 Y158.187 E303.63502
G1 X228.407 Y159.416 E303.76673
G1 X229.893 Y160.439 E303.89874
G1 X234.900 Y162.880 E304.30633
G1 X234.900 Y171.251 E304.91885
G1 X231.916 Y173.419 E305.18874
G1 X225.096 Y178.370 E305.80541
G1 X220.233 Y181.899 E306.24507
G1 X198.217 Y181.900 E307.85603
G1 X197.558 Y181.899 E307.90425
G1 X124.100 Y181.899 E313.27934
G1 X124.100 Y118.100 E317.94766
G0 F9000 X124.500 Y118.500
G1 F1200 X220.104 Y118.500 E324.94323
G1 X234.500 Y128.951 E326.24493
G1 X234.500 Y136.869 E326.82431
G1 X229.684 Y139.217 E327.21636
G1 X228.156 Y140.269 E327.35210
G1 X226.798 Y141.539 E327.48815
G1 X225.646 Y142.992 E327.62383
G1 X224.720 Y144.604 E327.75986
G1 X224.045 Y146.335 E327.89581
G1 X223.632 Y148.150 E328.03202
G1 X223.494 Y149.999 E328.16769
G1 X223.632 Y151.849 E328.30343
G1 X224.045 Y153.664 E328.43964
G1 X224.720 Y155.395 E328.57559
G1 X225.646 Y157.007 E328.71162
G1 X226.798 Y158.460 E328.84730
G1 X228.156 Y159.730 E328.98335
G1 X229.684 Y160.782 E329.11909
G1 X234.500 Y163.130 E329.51114
G1 X234.500 Y171.048 E330.09052
G1 X231.681 Y173.096 E330.34548
G1 X220.103 Y181.499 E331.39228
G1 X198.217 Y181.500 E332.99373
G1 X197.558 Y181.499 E333.04195
G1 X124.500 Y181.499 E338.38777
G1 X124.500 Y118.500 E342.99755
G0 F9000 X124.900 Y118.900
G1 F1200 X219.974 Y118.900 E349.95434
G1 X234.100 Y129.155 E351.23163
G1 X234.100 Y136.619 E351.77778
G1 X229.487 Y138.867 E352.15327
G1 X227.900 Y139.960 E352.29428
G1 X226.505 Y141.264 E352.43400
G1 X225.314 Y142.767 E352.57432
G1 X224.358 Y144.431 E352.71475
G1 X223.661 Y146.216 E352.85496
G1 X223.235 Y148.091 E352.99566
G1 X223.093 Y150.000 E353.13573
G1 X223.235 Y151.908 E353.27573
G1 X223.661 Y153.783 E353.41642
G1 X224.358 Y155.568 E353.55664
G1 X225.314 Y157.232 E353.69706
G1 X226.505 Y158.735 E353.83738
G1 X227.900 Y160.039 E353.97711
G1 X229.487 Y161.132 E354.11811
G1 X234.100 Y163.380 E354.49360
G1 X234.100 Y170.844 E355.03976
G1 X231.446 Y172.772 E355.27979
G1 X219.974 Y181.099 E356.31705
G1 X198.217 Y181.100 E357.90906
G1 X197.559 Y181.099 E357.95721
G1 X124.900 Y181.099 E363.27383
G1 X124.900 Y118.900 E367.82508
G0 F9000 X125.300 Y119.300
G1 F1200 X219.844 Y119.300 E374.74308
G1 X233.700 Y129.359 E375.99595
G1 X233.700 Y136.369 E376.50889
G1 X229.283 Y138.521 E376.86841
G1 X227.653 Y139.644 E377.01325
G1 X226.208 Y140.994 E377.15795
G1 X224.982 Y142.541 E377.30238
G1 X223.994 Y144.261 E377.44753
G1 X223.279 Y146.093 E377.59143
G1 X222.838 Y148.034 E377.73707
G1 X222.691 Y150.000 E377.88133
G1 X222.838 Y151.965 E378.02552
G1 X223.279 Y153.906 E378.17116
G1 X223.994 Y155.738 E378.31506
G1 X224.982 Y157.458 E378.46020
G1 X226.208 Y159.005 E378.60464
G1 X227.653 Y160.355 E378.74934
G1 X229.283 Y161.478 E378.89418
G1 X233.700 Y163.630 E379.25370
G1 X233.700 Y170.640 E379.76663
G1 X231.211 Y172.448 E379.99174
G1 X219.844 Y180.699 E381.01951
G1 X198.218 Y180.700 E382.60193
G1 X197.560 Y180.699 E382.65008
G1 X125.300 Y180.699 E387.93751
G1 X125.300 Y119.300 E392.43022
G0 F9000 X125.700 Y119.700
G1 F1200 X219.714 Y119.700 E399.30944
G1 X233.300 Y129.563 E400.53790
G1 X233.300 Y136.119 E401.01762
G1 X229.080 Y138.176 E401.36114
G1 X227.402 Y139.332 E401.51024
G1 X225.913 Y140.724 E401.65939
G1 X224.650 Y142.317 E401.80814
G1 X223.635 Y144.084 E401.95725
G1 X222.895 Y145.981 E402.10624
G1 X222.441 Y147.975 E402.25588
G1 X222.290 Y150.000 E402.40447
G1 X222.441 Y152.024 E402.55298
G1 X222.895 Y154.018 E402.70262
G1 X223.635 Y155.915 E402.85162
G1 X224.650 Y157.682 E403.00072
G1 X225.913 Y159.275 E403.14948
G1 X227.402 Y160.667 E403.29863
G1 X229.080 Y161.823 E403.44773
G1 X233.300 Y163.880 E403.79124
G1 X233.300 Y170.436 E404.27096
G1 X230.976 Y172.125 E404.48118
G1 X219.714 Y180.299 E405.49942
G1 X198.218 Y180.300 E407.07234
G1 X197.560 Y180.299 E407.12048
G1 X125.700 Y180.299 E412.37865
G1 X125.700 Y119.700 E416.81281
G0 F9000 X126.100 Y120.100
G1 F1200 X219.584 Y120.100 E423.65325
G1 X232.900 Y129.767 E424.85730
G1 X232.900 Y135.869 E425.30380
G1 X228.876 Y137.831 E425.63138
G1 X227.154 Y139.016 E425.78433
G1 X225.616 Y140.454 E425.93840
G1 X224.316 Y142.093 E426.09148
G1 X223.273 Y143.910 E426.24478
G1 X222.510 Y145.866 E426.39841
G1 X222.047 Y147.903 E426.55126
G1 X221.890 Y150.000 E426.70513
G1 X222.047 Y152.096 E426.85893
G1 X222.510 Y154.133 E427.01178
G1 X223.273 Y156.089 E427.16541
G1 X224.316 Y157.906 E427.31871
G1 X225.616 Y159.545 E427.47179
G1 X227.154 Y160.983 E427.62585
G1 X228.876 Y162.168 E427.77881
G1 X232.900 Y164.130 E428.10639
G1 X232.900 Y170.232 E428.55289
G1 X230.741 Y171.801 E428.74818
G1 X219.584 Y179.899 E429.75694
G1 X198.218 Y179.900 E431.32034
G1 X197.561 Y179.899 E431.36841
G1 X126.100 Y179.899 E436.59738
G1 X126.100 Y120.100 E440.97301
G0 F9000 X126.500 Y120.500
G1 F1200 X219.454 Y120.500 E447.77466
G1 X232.500 Y129.971 E448.95430
G1 X232.500 Y135.619 E449.36758
G1 X228.674 Y137.484 E449.67902
G1 X226.903 Y138.703 E449.83634
G1 X225.323 Y140.180 E449.99460
G1 X223.982 Y141.872 E450.15258
